src/food-drink/food-vegetable/1F344-200D-1F7EB.svg

<svg id="eoW86F7edyj1" xmlns="http://www.w3.org/2000/svg" xmlns:xlink="http://www.w3.org/1999/xlink" viewBox="0 0 72 72" shape-rendering="geometricPrecision" text-rendering="geometricPrecision" project-id="6b25116d16904732a594867c02da76fd" export-id="95cf6a583c644acbbbca3895a4a6c226" cached="false"><g><path d="M68,4v64h-64L4,4h64m4-4L0,0v72h72v-72Z" fill="#b3b3b3"/><rect width="50" height="50" rx="1.9231" ry="1.9231" transform="translate(11 10.9583)" fill="none" stroke="#00a5ff" stroke-width="0.1" stroke-miterlimit="10"/><rect width="40" height="64" rx="2.2537" ry="2.2537" transform="translate(16 4)" fill="none" stroke="#00a5ff" stroke-width="0.1" stroke-miterlimit="10"/><rect width="40" height="64" rx="2.2537" ry="2.2537" transform="matrix(0 1-1 0 68 16)" fill="none" stroke="#00a5ff" stroke-width="0.1" stroke-miterlimit="10"/><circle r="29" transform="translate(36 36)" fill="none" stroke="#00a5ff" stroke-width="0.1" stroke-miterlimit="10"/></g><g><path d="M41.8312,61.958c-.160262.000481-.32039-.009306-.4794-.0293h-11.6973c-1.087032.102694-2.167271-.255487-2.9776-.9873-.371836-.391188-.568546-.916805-.5449-1.456l-.0039-11.7276c0-.552285.447715-1,1-1h16.5508c.552285,0,1,.447715,1,1v11.45c.0427.803905-.285968,1.582926-.8916,2.1133-.558329.432937-1.249902.658111-1.9561.6369ZM28.1281,59.5664v.0049l.001.001-.001-.0059Z" fill="#fff"/><path d="M43.6789,46.7578h-4.8223v15.1709h2.4952c.15901.019994.319138.029781.4794.0293.706174.021268,1.397744-.203835,1.9561-.6367.605632-.530374.9343-1.309395.8916-2.1133v-11.45c.000053-.265251-.10528-.519656-.292822-.707236s-.441927-.292964-.707178-.292964Z" fill="#d0cfce"/><path d="M36,48.7578c-13.3711,0-26,0-26-10c0-9.4775,11.6475-24,26-24s26,14.5225,26,24c0,10-12.6287,10-26,10Z" fill="#a57939"/><path d="M36,14.7578c-1.662111.004187-3.318318.197974-4.9365.5776c11.9931,2.7761,21.0632,15.06,21.0632,23.4224c0,8.755-9.68,9.8449-21.0632,9.9807c1.6189.0193,3.2717.0193,4.9365.0193c13.3711,0,26,0,26-10c0-9.4778-11.6473-24-26-24Z" fill="#6a462f"/></g><g><path d="M27.1284,51.5319v8.0389c0,0-.1171,1.358,2.5264,1.358h11.7694c0,0,2.2545.3973,2.2545-1.72v-7.677" fill="none" stroke="#000" stroke-width="2" stroke-linecap="round" stroke-linejoin="round"/><path d="M61,38.7581c0,8.8366-11.1929,9-25,9s-25-.1634-25-9s11.1929-23,25-23s25,14.1634,25,23Z" fill="none" stroke="#000" stroke-width="2" stroke-linecap="round" stroke-linejoin="round"/><path d="M61,38.7581c0,8.8366-11.1929,9-25,9s-25-.1634-25-9s11.1929-23,25-23s25,14.1634,25,23Z" fill="none" stroke="#000" stroke-width="2" stroke-linecap="round" stroke-linejoin="round"/></g></svg>

<svg id="emoji" viewBox="0 0 72 72" xmlns="http://www.w3.org/2000/svg">
  <g id="grid">
    <path fill="#b3b3b3" d="M68,4V68H4V4H68m4-4H0V72H72V0Z"/>
    <rect x="11" y="10.9583" rx="1.9231" width="50" height="50" fill="none" stroke="#00a5ff" stroke-miterlimit="10" stroke-width="0.1"/>
    <rect x="16" y="4" rx="2.2537" width="40" height="64" fill="none" stroke="#00a5ff" stroke-miterlimit="10" stroke-width="0.1"/>
    <rect x="16" y="4" rx="2.2537" width="40" height="64" transform="translate(72) rotate(90)" fill="none" stroke="#00a5ff" stroke-miterlimit="10" stroke-width="0.1"/>
    <circle cx="36" cy="36" r="29" fill="none" stroke="#00a5ff" stroke-miterlimit="10" stroke-width="0.1"/>
  </g>
  <g id="color">
    <path fill="#fff" d="M41.8312,61.958a3.7524,3.7524,0,0,1-.4794-.0293H29.6545a3.8959,3.8959,0,0,1-2.9776-.9873,1.987,1.987,0,0,1-.5449-1.456l-.0039-11.7276a1,1,0,0,1,1-1H43.6789a1,1,0,0,1,1,1v11.45a2.6241,2.6241,0,0,1-.8916,2.1133A3.0431,3.0431,0,0,1,41.8312,61.958ZM28.1281,59.5664v.0049l.001.001Z"/>
    <path fill="#d0cfce" d="M43.6789,46.7578H38.8566V61.9287h2.4952a3.7524,3.7524,0,0,0,.4794.0293,3.0431,3.0431,0,0,0,1.9561-.6367,2.6241,2.6241,0,0,0,.8916-2.1133v-11.45A1,1,0,0,0,43.6789,46.7578Z"/>
    <path fill="#a57939" d="M36,48.7578c-13.3711,0-26,0-26-10,0-9.4775,11.6475-24,26-24s26,14.5225,26,24C62,48.7578,49.3713,48.7578,36,48.7578Z"/>
    <path fill="#6a462f" d="M36,14.7578a21.8545,21.8545,0,0,0-4.9365.5776c11.9931,2.7761,21.0632,15.06,21.0632,23.4224,0,8.755-9.68,9.8449-21.0632,9.9807,1.6189.0193,3.2717.0193,4.9365.0193,13.3711,0,26,0,26-10C62,29.28,50.3527,14.7578,36,14.7578Z"/>
  </g>
  <g id="line">
    <path fill="none" stroke="#000" stroke-linecap="round" stroke-linejoin="round" stroke-width="2" d="M27.1284,51.5319v8.0389s-.1171,1.358,2.5264,1.358H41.4242s2.2545.3973,2.2545-1.72V51.5318"/>
    <path fill="none" stroke="#000" stroke-linecap="round" stroke-linejoin="round" stroke-width="2" d="M61,38.7581c0,8.8366-11.1929,9-25,9s-25-.1634-25-9,11.1929-23,25-23S61,29.9215,61,38.7581Z"/>
    <path fill="none" stroke="#000" stroke-linecap="round" stroke-linejoin="round" stroke-width="2" d="M61,38.7581c0,8.8366-11.1929,9-25,9s-25-.1634-25-9,11.1929-23,25-23S61,29.9215,61,38.7581Z"/>
  </g>
</svg>
